widgets/Select/css/images/more_hover.svg

<svg width="16" height="4" xmlns="http://www.w3.org/2000/svg"><path d="M2 0C.9 0 0 .9 0 2s.9 2 2 2 2-.9 2-2-.9-2-2-2zm12 0c-1.1 0-2 .9-2 2s.9 2 2 2 2-.9 2-2-.9-2-2-2zM8 0C6.9 0 6 .9 6 2s.9 2 2 2 2-.9 2-2-.9-2-2-2z" fill-rule="evenodd"/></svg>

<?xml version="1.0" encoding="UTF-8" standalone="no"?>
<svg width="16px" height="4px" viewBox="0 0 16 4" version="1.1" xmlns="http://www.w3.org/2000/svg" xmlns:xlink="http://www.w3.org/1999/xlink" xmlns:sketch="http://www.bohemiancoding.com/sketch/ns">
    <!-- Generator: Sketch 3.5.1 (25234) - http://www.bohemiancoding.com/sketch -->
    <title>more_hover</title>
    <desc>Created with Sketch.</desc>
    <defs></defs>
    <g id="specification" stroke="none" stroke-width="1" fill="none" fill-rule="evenodd" sketch:type="MSPage">
        <g id="spec" sketch:type="MSArtboardGroup" transform="translate(-85.000000, -413.000000)" fill="#000000">
            <g id="more_hover" sketch:type="MSLayerGroup" transform="translate(85.000000, 413.000000)">
                <path d="M2,0 C0.9,0 0,0.9 0,2 C0,3.1 0.9,4 2,4 C3.1,4 4,3.1 4,2 C4,0.9 3.1,0 2,0 L2,0 Z M14,0 C12.9,0 12,0.9 12,2 C12,3.1 12.9,4 14,4 C15.1,4 16,3.1 16,2 C16,0.9 15.1,0 14,0 L14,0 Z M8,0 C6.9,0 6,0.9 6,2 C6,3.1 6.9,4 8,4 C9.1,4 10,3.1 10,2 C10,0.9 9.1,0 8,0 L8,0 Z" id="Shape" sketch:type="MSShapeGroup"></path>
            </g>
        </g>
    </g>
</svg>
